X: 39767
T: Thank God We're Surrounded By Water
R: jig
M: 6/8
K: Gdorian
|:D|DGG GFG|Add d2 e|fef ded|cAG F2 D|
DGG GFG|Add d2 e|fed cAF|G3 G2:|
|:g|gdg gdg|gab a2 g|fef ded|cAG FGA|
B3- BAG|Add d2 e|fed cAF|G3 G2:|

